;FLAVOR:Marlin
;TIME:4490
;Filament used: 1.56498m
;Layer height: 0.16
;MINX:89.962
;MINY:95.243
;MINZ:0.4
;MAXX:129.67
;MAXY:128.456
;MAXZ:45.74
;Generated with Cura_SteamEngine 4.13.1
M140 S60
M105
M190 S60
M104 S200
M105
M109 S200
M82 ;absolute extrusion mode
; Ender 3 Custom Start G-code
G92 E0 ; Reset Extruder
G28 ; Home all axes
M107 ; Start with fan off
G1 Z2.0 F3000 ; Move Z Axis up little to prevent scratching of Heat Bed
G1 X0.1 Y20 Z0.3 F5000.0 ; Move to start position
G1 X0.1 Y200.0 Z0.3 F1500.0 E15 ; Draw the first line
G1 X0.4 Y200.0 Z0.3 F5000.0 ; Move to side a little
G1 X0.4 Y20 Z0.3 F1500.0 E30 ; Draw the second line
G92 E0 ; Reset Extruder
G1 Z2.0 F3000 ; Move Z Axis up little to prevent scratching of Heat Bed
G1 X5 Y20 Z0.3 F5000.0 ; Move over to prevent blob squish
G92 E0
G92 E0
G1 F1500 E-6.5
;LAYER_COUNT:279
;LAYER:-6
M107
G0 F9000 X97.084 Y101.45 Z0.4
;TYPE:SUPPORT-INTERFACE
G1 F1500 E0
G1 F1125 X97.904 Y100.712 E0.14677
G1 X97.982 Y100.646 E0.16036
G1 X98.452 Y100.263 E0.24102
G1 X98.532 Y100.201 E0.25449
G1 X99.414 Y99.555 E0.39994
G1 X99.514 Y99.485 E0.41618
G1 X100.016 Y99.156 E0.49603
G1 X100.113 Y99.096 E0.5112
G1 X101.052 Y98.548 E0.65585
G1 X101.159 Y98.488 E0.67217
G1 X101.657 Y98.23 E0.74679
G1 X101.777 Y98.172 E0.76452
G1 X102.798 Y97.708 E0.91372
G1 X103.441 Y97.454 E1.0057
G1 X103.559 Y97.411 E1.02241
G1 X104.643 Y97.053 E1.17428
G1 X104.801 Y97.005 E1.19625
G1 X105.297 Y96.871 E1.26461
G1 X105.47 Y96.829 E1.28829
G1 X106.519 Y96.602 E1.43108
G1 X106.633 Y96.581 E1.4465
G1 X107.201 Y96.489 E1.52306
G1 X107.327 Y96.472 E1.53997
G1 X108.496 Y96.349 E1.69635
G1 X108.62 Y96.339 E1.7129
G1 X109.187 Y96.311 E1.78843
G1 X109.33 Y96.307 E1.80746
G1 X110.394 Y96.308 E1.94902
G1 X110.518 Y96.311 E1.96552
G1 X111.033 Y96.338 E2.03413
G1 X111.189 Y96.35 E2.05495
G1 X112.365 Y96.479 E2.21234
G1 X112.495 Y96.497 E2.2298
G1 X113.037 Y96.586 E2.30287
G1 X113.148 Y96.607 E2.3179
G1 X114.223 Y96.841 E2.46427
G1 X114.364 Y96.877 E2.48363
G1 X114.875 Y97.016 E2.55408
G1 X115.015 Y97.058 E2.57353
G1 X116.12 Y97.425 E2.72844
G1 X116.221 Y97.461 E2.7427
G1 X116.746 Y97.668 E2.81778
G1 X116.891 Y97.73 E2.83876
G1 X117.856 Y98.168 E2.97975
G1 X117.969 Y98.222 E2.99641
G1 X118.472 Y98.484 E3.07187
G1 X118.594 Y98.55 E3.09032
G1 X119.55 Y99.111 E3.23779
G1 X119.65 Y99.172 E3.25337
G1 X120.127 Y99.487 E3.32942
G1 X120.252 Y99.574 E3.34968
G1 X121.095 Y100.193 E3.48882
G1 X121.204 Y100.277 E3.50713
G1 X121.642 Y100.634 E3.58231
G1 X121.754 Y100.729 E3.60185
G1 X122.522 Y101.421 E3.73938
G1 X122.605 Y101.499 E3.75453
G1 X123.035 Y101.926 E3.83516
G1 X123.118 Y102.014 E3.85125
G1 X123.814 Y102.777 E3.98865
G1 X123.897 Y102.872 E4.00543
G1 X124.288 Y103.345 E4.08708
G1 X124.35 Y103.424 E4.10044
G1 X124.969 Y104.251 E4.23787
G1 X125.033 Y104.343 E4.25278
G1 X125.389 Y104.869 E4.33728
G1 X125.967 Y105.815 E4.48477
G1 X126.31 Y106.44 E4.57962
G1 X126.368 Y106.553 E4.59651
G1 X126.814 Y107.467 E4.73182
G1 X127.096 Y108.118 E4.8262
G1 X127.145 Y108.241 E4.84382
G1 X127.464 Y109.087 E4.96411
G1 X127.52 Y109.244 E4.98628
G1 X127.706 Y109.816 E5.0663
G1 X127.746 Y109.944 E5.08415
G1 X128.006 Y110.883 E5.21377
G1 X128.171 Y111.602 E5.31191
G1 X128.191 Y111.698 E5.32496
G1 X128.364 Y112.65 E5.45369
G1 X128.38 Y112.749 E5.46703
G1 X128.467 Y113.401 E5.55454
G1 X128.48 Y113.508 E5.56888
G1 X128.564 Y114.456 E5.6955
G1 X128.572 Y114.572 E5.71097
G1 X128.603 Y115.296 E5.80738
G1 X128.606 Y116.122 E5.91727
G1 X128.599 Y116.316 E5.9431
G1 X128.537 Y117.105 E6.04839
G1 X128.521 Y117.238 E6.06621
G1 X128.4 Y117.991 E6.16768
G1 X128.353 Y118.219 E6.19865
G1 X128.182 Y118.915 E6.294
G1 X128.116 Y119.141 E6.32532
G1 X127.892 Y119.811 E6.41931
G1 X127.813 Y120.018 E6.44878
G1 X127.516 Y120.71 E6.54897
G1 X127.432 Y120.887 E6.57503
G1 X127.086 Y121.539 E6.67323
G1 X126.976 Y121.726 E6.7021
G1 X126.585 Y122.339 E6.79883
G1 X126.461 Y122.518 E6.8278
G1 X126.018 Y123.1 E6.92511
G1 X125.884 Y123.262 E6.95308
G1 X125.382 Y123.821 E7.05303
G1 X125.269 Y123.936 E7.07448
G1 X124.685 Y124.488 E7.18139
G1 X124.568 Y124.591 E7.20213
G1 X123.965 Y125.075 E7.305
G1 X123.82 Y125.18 E7.32882
G1 X123.19 Y125.607 E7.43007
G1 X123.029 Y125.706 E7.45522
G1 X122.359 Y126.082 E7.55743
G1 X122.192 Y126.167 E7.58236
G1 X121.508 Y126.482 E7.68255
G1 X121.35 Y126.547 E7.70528
G1 X120.629 Y126.809 E7.80734
G1 X120.442 Y126.869 E7.83346
G1 X119.706 Y127.071 E7.935
G1 X119.528 Y127.112 E7.9593
G1 X118.789 Y127.25 E8.05932
G1 X118.592 Y127.279 E8.08581
G1 X117.818 Y127.36 E8.18935
G1 X117.662 Y127.37 E8.21014
G1 X116.965 Y127.391 E8.30292
G1 X102.68 Y127.391 E10.2034
G1 X101.776 Y127.355 E10.32376
G1 X101.567 Y127.338 E10.35166
G1 X100.85 Y127.25 E10.44777
G1 X100.64 Y127.215 E10.47609
G1 X99.885 Y127.059 E10.57866
G1 X99.725 Y127.019 E10.6006
G1 X98.98 Y126.801 E10.70387
G1 X98.817 Y126.745 E10.7268
G1 X98.107 Y126.472 E10.828
G1 X97.933 Y126.396 E10.85326
G1 X97.251 Y126.067 E10.954
G1 X97.078 Y125.975 E10.98007
G1 X96.418 Y125.588 E11.08186
G1 X96.279 Y125.499 E11.10382
G1 X95.649 Y125.055 E11.20636
G1 X95.5 Y124.94 E11.2314
G1 X94.928 Y124.465 E11.33031
G1 X94.77 Y124.323 E11.35858
G1 X94.242 Y123.805 E11.45698
G1 X94.107 Y123.661 E11.48324
G1 X93.621 Y123.1 E11.58199
G1 X93.478 Y122.92 E11.61258
G1 X93.06 Y122.349 E11.70672
G1 X92.931 Y122.155 E11.73772
G1 X92.546 Y121.527 E11.83572
G1 X92.447 Y121.35 E11.8627
G1 X92.109 Y120.679 E11.96265
G1 X92.032 Y120.512 E11.98712
G1 X91.747 Y119.811 E12.08779
G1 X91.681 Y119.627 E12.1138
G1 X91.453 Y118.902 E12.21491
G1 X91.406 Y118.73 E12.23863
G1 X91.238 Y117.987 E12.33998
G1 X91.204 Y117.801 E12.36513
G1 X91.098 Y117.061 E12.46459
G1 X91.076 Y116.848 E12.49308
G1 X91.03 Y116.089 E12.59424
G1 X91.027 Y115.958 E12.61167
G1 X91.036 Y115.283 E12.70148
G1 X91.066 Y114.578 E12.79536
G1 X91.074 Y114.455 E12.81176
G1 X91.167 Y113.425 E12.94935
G1 X91.259 Y112.752 E13.03972
G1 X91.283 Y112.605 E13.05954
G1 X91.463 Y111.619 E13.19288
G1 X91.637 Y110.867 E13.29557
G1 X91.917 Y109.864 E13.43411
G1 X92.128 Y109.218 E13.52452
G1 X92.156 Y109.139 E13.53568
G1 X92.498 Y108.231 E13.66476
G1 X92.789 Y107.549 E13.76341
G1 X92.844 Y107.429 E13.78097
G1 X93.277 Y106.542 E13.91229
G1 X93.332 Y106.434 E13.92841
G1 X93.632 Y105.886 E14.01153
G1 X93.689 Y105.786 E14.02684
G1 X94.206 Y104.941 E14.15863
G1 X94.27 Y104.841 E14.17443
G1 X94.654 Y104.273 E14.26565
G1 X95.294 Y103.418 E14.40773
G1 X95.388 Y103.3 E14.4278
G1 X95.731 Y102.886 E14.49933
G1 X95.835 Y102.765 E14.52056
G1 X96.518 Y102.017 E14.65532
G1 X96.603 Y101.927 E14.67178
G1 X97.084 Y101.45 E14.76191
G0 F9000 X97.6 Y100.985
G1 F1125 X97.6 Y126.235 E18.12118
G0 F9000 X99.2 Y126.865
G1 F1125 X99.2 Y99.711 E21.73377
G0 F9000 X100.8 Y98.695
G1 F1125 X100.8 Y127.241 E25.53154
G0 F9000 X102.4 Y127.379
G1 F1125 X102.4 Y97.888 E29.45504
G0 F9000 X104 Y97.265
G1 F1125 X104 Y127.391 E33.46302
G0 F9000 X105.6 Y127.391
G1 F1125 X105.6 Y96.8 E37.53286
G0 F9000 X107.2 Y96.489
G1 F1125 X107.2 Y127.391 E41.64408
G0 F9000 X108.8 Y127.391
G1 F1125 X108.8 Y96.33 E45.77645
G0 F9000 X110.4 Y96.309
G1 F1125 X110.4 Y127.391 E49.91162
G0 F9000 X112 Y127.391
G1 F1125 X112 Y96.439 E54.02949
G0 F9000 X113.6 Y96.706
G1 F1125 X113.6 Y127.391 E58.11184
G0 F9000 X115.2 Y127.391
G1 F1125 X115.2 Y97.12 E62.13911
G0 F9000 X116.8 Y97.692
G1 F1125 X116.8 Y127.391 E66.09028
G0 F9000 X118.4 Y127.3
G1 F1125 X118.4 Y98.447 E69.9289
G0 F9000 X120 Y99.404
G1 F1125 X120 Y126.991 E73.59909
G0 F9000 X121.6 Y126.44
G1 F1125 X121.6 Y100.6 E77.03685
G0 F9000 X123.2 Y102.104
G1 F1125 X123.2 Y125.601 E80.16291
G0 F9000 X124.8 Y124.38
G1 F1125 X124.8 Y104.026 E82.87082
G0 F9000 X126.4 Y106.619
G1 F1125 X126.4 Y122.599 E84.9968
G0 F9000 X128 Y119.488
G1 F1125 X128 Y110.862 E86.14441
G1 F1500 E79.64441
G0 F9000 X129.025 Y110.578
G0 X128.465 Y108.725
G0 X127.779 Y107.018
G0 X126.88 Y105.269
G0 X125.834 Y103.631
G0 X124.606 Y102.066
G0 X123.248 Y100.642
G0 X121.739 Y99.346
G0 X120.1 Y98.2
G0 X118.308 Y97.204
G0 X116.464 Y96.417
G0 X114.468 Y95.806
G0 X112.489 Y95.422
G0 X110.412 Y95.244
G0 X108.403 Y95.289
G0 X106.304 Y95.559
G0 X104.326 Y96.036
G0 X102.383 Y96.728
G0 X100.528 Y97.622
G0 X98.798 Y98.687
G0 X97.209 Y99.905
G0 X96.377 Y100.689
G0 X95.214 Y101.867
G0 X96 Y102.584
G1 F1500 E86.14441
G1 F1125 X96 Y125.302 E89.16683
G0 F9000 X94.4 Y123.96
G1 F1125 X94.4 Y104.648 E91.73611
G0 F9000 X92.8 Y107.525
G1 F1125 X92.8 Y121.941 E93.65402
G1 F1500 E87.15402
G0 F9000 X91.632 Y122.072
G0 X91.06 Y120.943
G0 X90.553 Y119.539
G0 X90.192 Y118.192
G0 X91.2 Y117.773
G1 F1500 E93.65402
G1 F1125 X91.2 Y113.183 E94.26467
G1 F1500 E87.76467
G0 F300 X91.2 Y113.183 Z0.64
G0 F9000 X90.106 Y113.334
G0 X89.962 Y115.955
G0 X90.043 Y117.199
G0 X90.311 Y118.653
G0 X90.749 Y120.184
G0 X92.032 Y120.511
;TIME_ELAPSED:48.007287
;LAYER:-5
;TYPE:SUPPORT
G1 F1500 E94.26467
G1 F1125 X92.108 Y120.678 E94.27932
G1 X92.447 Y121.349 E94.33933
G1 X92.546 Y121.526 E94.35552
G1 X92.93 Y122.154 E94.41428
G1 X93.06 Y122.348 E94.43292
G1 X93.478 Y122.919 E94.48941
G1 X93.62 Y123.098 E94.50764
G1 X94.107 Y123.66 E94.56701
G1 X94.241 Y123.804 E94.58271
G1 X94.769 Y124.322 E94.64175
G1 X94.928 Y124.464 E94.65877
G1 X95.499 Y124.939 E94.71806
G1 X95.648 Y125.054 E94.73308
G1 X96.278 Y125.498 E94.7946
G1 X96.417 Y125.587 E94.80778
G1 X97.077 Y125.974 E94.86885
G1 X97.251 Y126.065 E94.88453
G1 X97.932 Y126.395 E94.94493
G1 X98.106 Y126.471 E94.96009
G1 X98.237 Y126.521 E94.97128
G1 X91.897 Y120.181 E95.687
G1 X91.747 Y119.81 E95.71894
G1 X91.681 Y119.626 E95.73454
G1 X91.452 Y118.901 E95.79524
G1 X91.406 Y118.728 E95.80952
G1 X91.273 Y118.143 E95.85741
G1 X100.266 Y127.136 E96.87262
G1 X100.639 Y127.214 E96.90304
G1 X100.85 Y127.249 E96.92011
G1 X101.567 Y127.337 E96.97778
G1 X101.776 Y127.354 E96.99451
G1 X101.903 Y127.359 E97.00466
G1 X91.055 Y116.511 E98.22928
G1 X91.03 Y116.088 E98.2631
G1 X91.027 Y115.957 E98.27356
G1 X91.035 Y115.282 E98.32745
G1 X91.043 Y115.085 E98.34318
G1 X103.348 Y127.39 E99.73228
G1 X104.762 Y127.39 E99.84515
G1 X91.136 Y113.763 E101.38343
G1 X91.167 Y113.424 E101.4106
G1 X91.259 Y112.751 E101.46482
G1 X91.283 Y112.603 E101.47679
G1 X91.299 Y112.512 E101.48417
G1 X106.177 Y127.39 E103.16372
G1 X107.591 Y127.39 E103.27659
G1 X91.529 Y111.328 E105.08981
G1 X91.636 Y110.865 E105.12775
G1 X91.82 Y110.205 E105.18244
G1 X109.005 Y127.39 E107.12243
G1 X110.419 Y127.39 E107.2353
G1 X92.159 Y109.129 E109.2967
G1 X92.498 Y108.229 E109.37347
G1 X92.55 Y108.106 E109.38413
G1 X111.833 Y127.39 E111.56102
G1 X113.248 Y127.39 E111.67397
G1 X92.988 Y107.13 E113.9611
G1 X93.277 Y106.541 E114.01347
G1 X93.331 Y106.433 E114.02311
G1 X93.463 Y106.191 E114.04511
G1 X114.662 Y127.39 E116.43824
G1 X116.076 Y127.39 E116.55111
G1 X93.985 Y105.299 E119.04493
G1 X94.206 Y104.94 E119.07858
G1 X94.27 Y104.839 E119.08813
G1 X94.54 Y104.439 E119.12665
G1 X117.475 Y127.374 E121.71575
G1 X117.661 Y127.369 E121.7306
G1 X117.818 Y127.359 E121.74316
G1 X118.592 Y127.278 E121.80528
G1 X118.766 Y127.251 E121.81934
G1 X95.138 Y103.623 E124.48667
G1 X95.293 Y103.417 E124.50725
G1 X95.387 Y103.299 E124.51929
G1 X95.73 Y102.885 E124.56221
G1 X95.769 Y102.84 E124.56696
G1 X119.935 Y127.006 E127.29503
G1 X120.442 Y126.868 E127.33697
G1 X120.629 Y126.808 E127.35265
G1 X121.012 Y126.668 E127.3852
G1 X96.442 Y102.099 E130.15882
G1 X96.517 Y102.016 E130.16775
G1 X96.602 Y101.925 E130.17769
G1 X97.083 Y101.449 E130.23171
G1 X97.148 Y101.391 E130.23866
G1 X122.007 Y126.25 E133.04496
G1 X122.192 Y126.166 E133.06118
G1 X122.359 Y126.081 E133.07614
G1 X122.931 Y125.759 E133.12853
G1 X97.893 Y100.721 E135.95504
G1 X97.903 Y100.711 E135.95617
G1 X97.982 Y100.645 E135.96438
G1 X98.451 Y100.262 E136.01272
G1 X98.531 Y100.2 E136.0208
G1 X98.678 Y100.093 E136.03531
G1 X123.786 Y125.201 E138.86972
G1 X123.82 Y125.179 E138.87295
G1 X123.965 Y125.073 E138.88729
G1 X124.568 Y124.59 E138.94896
G1 X124.579 Y124.579 E138.9502
G1 X99.496 Y99.496 E141.78179
G1 X99.513 Y99.484 E141.78345
G1 X100.015 Y99.155 E141.83136
G1 X100.112 Y99.096 E141.84042
G1 X100.363 Y98.949 E141.86364
G1 X125.309 Y123.895 E144.67976
G1 X125.381 Y123.821 E144.688
G1 X125.883 Y123.261 E144.74804
G1 X125.977 Y123.149 E144.75971
G1 X101.262 Y98.434 E147.54975
G1 X101.656 Y98.229 E147.58521
G1 X101.776 Y98.171 E147.59585
G1 X102.215 Y97.973 E147.63429
G1 X126.583 Y122.34 E150.3851
G1 X126.584 Y122.338
G1 X126.975 Y121.725 E150.44314
G1 X127.085 Y121.538 E150.46046
G1 X127.124 Y121.467 E150.46692
G1 X103.204 Y97.547 E153.16722
G1 X103.44 Y97.454 E153.18747
G1 X103.558 Y97.411 E153.19749
G1 X104.252 Y97.181 E153.25586
G1 X127.595 Y120.524 E155.89102
G1 X127.811 Y120.017 E155.93501
G1 X127.891 Y119.81 E155.95272
G1 X127.993 Y119.508 E155.97817
G1 X105.344 Y96.859 E158.53498
G1 X105.469 Y96.828 E158.54526
G1 X106.505 Y96.605 E158.62985
G1 X128.305 Y118.406 E161.09088
G1 X128.351 Y118.219 E161.10625
G1 X128.399 Y117.99 E161.12493
G1 X128.52 Y117.237 E161.18581
G1 X128.523 Y117.21 E161.18798
G1 X107.742 Y96.428 E163.53397
G1 X108.495 Y96.348 E163.59442
G1 X108.618 Y96.339 E163.60426
G1 X109.046 Y96.318 E163.63847
G1 X128.604 Y115.876 E165.84635
G1 X128.602 Y115.295 E165.89272
G1 X128.571 Y114.571 E165.95057
G1 X128.563 Y114.456 E165.95977
G1 X128.56 Y114.418 E165.96281
G1 X110.452 Y96.31 E168.007
G1 X110.517 Y96.311 E168.01219
G1 X111.032 Y96.338 E168.05336
G1 X111.188 Y96.35 E168.06585
G1 X111.995 Y96.438 E168.13065
G1 X128.39 Y112.834 E169.98151
G1 X128.378 Y112.748 E169.98844
G1 X128.363 Y112.649 E169.99644
G1 X128.19 Y111.698 E170.0736
G1 X128.17 Y111.601 E170.0815
G1 X128.051 Y111.08 E170.12416
G1 X113.697 Y96.727 E171.74451
G1 X114.221 Y96.841 E171.78731
G1 X114.363 Y96.876 E171.79899
G1 X114.874 Y97.015 E171.84126
G1 X115.014 Y97.058 E171.85295
G1 X115.656 Y97.271 E171.90695
G1 X127.458 Y109.073 E173.23926
G1 X127.144 Y108.241 E173.31024
G1 X127.095 Y108.118 E173.32081
G1 X126.813 Y107.466 E173.37752
G1 X126.382 Y106.583 E173.45595
G1 X118.078 Y98.279 E174.39338
G1 X118.471 Y98.484 E174.42876
G1 X118.593 Y98.549 E174.4398
G1 X119.549 Y99.11 E174.52828
G1 X119.649 Y99.171 E174.53763
G1 X120.126 Y99.487 E174.5833
G1 X120.251 Y99.574 E174.59546
G1 X121.094 Y100.193 E174.67894
G1 X121.203 Y100.276 E174.68988
G1 X121.64 Y100.634 E174.73497
G1 X121.753 Y100.729 E174.74676
G1 X122.521 Y101.421 E174.82928
G1 X122.604 Y101.498 E174.83831
G1 X123.034 Y101.925 E174.88669
G1 X123.117 Y102.014 E174.8964
G1 X123.813 Y102.777 E174.97884
G1 X123.895 Y102.872 E174.98886
G1 X124.286 Y103.345 E175.03785
G1 X124.348 Y103.424 E175.04586
G1 X124.968 Y104.251 E175.12837
G1 X125.032 Y104.342 E175.13725
G1 X125.387 Y104.868 E175.1879
G1 X125.966 Y105.814 E175.27644
G1 X126.309 Y106.44 E175.33342
G1 X126.367 Y106.553 E175.34356
G1 F1500 E168.84356
G0 F300 X126.367 Y106.553 Z0.8
G0 F9000 X127.252 Y105.945
G0 X125.834 Y103.631
G0 X124.606 Y102.066
G0 X123.248 Y100.642
G0 X121.739 Y99.346
G0 X120.1 Y98.2
G0 X118.308 Y97.204
G0 X116.464 Y96.417
G0 X114.848 Y95.923
G0 X113.366 Y95.565
G0 X113.133 Y96.4
;TIME_ELAPSED:104.213827
;LAYER:-4
;TYPE:SUPPORT-INTERFACE
G1 F1500 E175.34356
G1 X106.512 Y96.4 E175.51973
G1 X106.605 Y96.382 E175.52225
G1 X107.164 Y96.292 E175.53732
G1 X107.306 Y96.273 E175.54113
G1 X108.485 Y96.149 E175.57267
G1 X108.61 Y96.139 E175.57601
G1 X109.177 Y96.111 E175.59111
G1 X109.324 Y96.107 E175.59503
G1 X110.399 Y96.108 E175.62363
G1 X110.518 Y96.111 E175.6268
G1 X111.055 Y96.138 E175.6411
G1 X111.206 Y96.151 E175.64514
G1 X112.386 Y96.28 E175.67672
G1 X112.533 Y96.3 E175.68067
G1 X113.07 Y96.388 E175.69515
G1 F1500 E169.19515
G0 F9000 X113.21 Y95.535
G0 X110.553 Y95.247
G0 X108.812 Y95.28
G0 X106.456 Y95.531
G0 X106.512 Y96.4
G1 F1500 E175.69515
G1 X106.47 Y96.408 E175.69629
G1 X105.423 Y96.634 E175.72479
G1 X105.255 Y96.675 E175.72939
G1 X104.793 Y96.8 E175.74212
G1 X114.843 Y96.8 E176.00953
G1 X114.923 Y96.822 E176.01174
G1 X115.084 Y96.87 E176.01621
G1 X116.078 Y97.2 E176.04408
G1 X103.561 Y97.2 E176.37713
G1 X103.485 Y97.225 E176.37926
G1 X103.372 Y97.266 E176.38246
G1 X102.722 Y97.523 E176.40106
